X:1
T:Love Never Dies
T:Love Never Dies 
T:Andrew Lloyd Webber 
T:Glenn Slater 
C:Andrew Lloyd Webber
Z:Glenn Slater
%%score 1 { 2 | 3 }
L:1/8
Q:1/4=80
M:6/8
K:Bb
V:1 treble nm="Voice"
V:2 treble nm="Piano"
V:3 bass 
V:1
 z6 | z6 | z6 | z6 | z6 | z6 | z6 | z6 | z6 | z6 | z6 | !fermata!z3 z2 B |[M:4/4] AAAB G3 E | %13
w: |||||||||||Who|knows when love be- gins? Who|
 EEFG F3 D | EEEB D3 B, | CCCF B,2 z B | AAAB G3 E | EEBE D3 D | EEEB D3 B, | CCCF B,4 | %20
w: knows what makes it start? One|day it's simp- ly there, a-|live in- side your heart. It|slips in- to your thoughts, it|in- fil- trates your soul, it|takes you by sur- prise, then|seiz- es full con- trol.|
 d2 BA G2 AB | c2 AG F3 D | EEEB D3 z | EEFF C4 |[M:6/8] d3 f2 F | G6 | e3 c2 G | G2 A- A3 | %28
w: Try to de- ny it, and|try to pro- test, but|love won't let you go|once you've been po- sessed.|Love nev- er|dies.|Love nev- er|falt- ers. _|
 B3 G2 B | A3 F3 | C3 D3 |"Cyours." F6 | d3 f2 F | G6 | e3 g2 G | G2 A- A3 | B3 G2 B | A3 F3 | %38
w: Once it has|spok- en,|love is||Love nev- er|fades.|Love nev- er|al- ters. _|Hearts may get|brok- en|
 C3 D3 | F6 | B3 G2 B | A3 F3 | C3 D3 | B,3- B, z B |[M:4/4] AAAB G3 E | EEFG F3 D | EEEB D3 B, | %47
w: love en-|dures...|Hearts may get|brok- en|love en-|dures. _ And|soon as you sub- mit, sur-|rend- er flesh and bone, that|love takes on a life much|
 CCCF B,2 z B | AAAB G3 E | EEBE D3 D | EEEB D3 B, | CCCF B,4 | d2 BA G2 AB | c2 AG F3 D | %54
w: big- ger than your own. It|us- es you at whim and|drives you to de- spair. And|forc- es you to feel more|joy than you can bear.|Love gives you pleas- ure, and|love brings you pain! And|
 EEEB D3 z | EEFF C4 |[M:6/8] z6 | z6 | z6 | z6 | B3 G2 B | A3 F3 | C3 D3 | F6 | d3 f2 F | G6 | %66
w: yet, when both are gone,|love will still re- main.|||||Once it has|spok- en,|love is|yours.|Love nev- er|dies,|
 e3 c2 G | G2 A- A3 | B3 G2 B | A3 F3 | C3 D3 | F6 | B3 G2 B | A3 F3 | z6 | d3 f2 F | G6 | %77
w: Love nev- er|al- ters. _|hearts may get|brok- en,|love en-|dures.|Hearts may get|brok- en,||Love nev- er|dies!|
 e3 c2 G | G2 A- A3 | B3 G2 B | A3 F3 | C3 D3 | F6 | d3 f2 F | G6 | e3 g2 G | G2 A- A3 | b3 g2 b | %88
w: Love will con-|ti- nue! _|Love keeps on|beat- ing|when you're|gone!|Love nev- er|dies|once it is|in you! _|Life may be|
 a3 f3 | c3 d3 | f6 | b3 g2 b |!>(! a3 !fermata!f3!>)! | c6 | !trill(!Td6 | !fermata!B6 |] %96
w: fleet- ing|love lives|on...|Life may be|fleet- ing|love|lives|on.|
V:2
 d3 f2 F | G6 | e3 c2 G | G2 A- A3 | B3 G2 B | A3 F3 | C3 D3 | [DF]6 | B3 G2 B | A3 F3 | %10
"_dim." [G,C]3 [A,D]3 | !fermata!z3 z2 B |[M:4/4] [DA]AAB [EG]3 E | [B,E]EFG [DF]3 D | %14
 [CE]EEB [B,D]3 B, | [A,C]CCF B,2 z B | [FA]AAB [EG]3 E | [B,E]EBE [B,D]3 D | [CE]EEB [CD]3 B, | %19
 [A,C]CCF B,4 | [Dd]2 BA G2 AB | [Cc]2 AG [DF]3 D | [B,E]EEB [B,D]4 | [G,CE]E[A,DF]F [A,C]4 | %24
[M:6/8] [FBd]3 [FBdf]2 F | GB,D B,DB, | [Gce]3 [Gc]2 G | [EG]C[EA] [EG][DF][CE] | [DB]3 G2 B | %29
 [CA]3 F3 | C3 D3 | [DF]6 | [FBd]3 [FBdf]2 F | [B,DG]G,A, B,CD | [EGce]3 [Gceg]2 G | %35
 [EG]C[EA-] [EGA]>[DF][CE] | [DB]3 G2 B | [CA]3 F3 | C3 D3 | F6 | [DB]3 G2 B | [CA]3 F3 | %42
 [EGc]3 [FAd]3 | [D-FB]3 [DFB] z B |[M:4/4] [B,DA]AAB [B,EG]3 E | [B,E]EFG [B,DF]3 D | %46
 [CE]EEB [CD]3 B, | [A,C]CCF B,2 z B | [DFA]A[CA]B [B,EG]3 E | [B,E]EBE [B,D]3 D | %50
 [CE]EEB [CD]3 B, | [A,C]CCF B,4 | [Dd]2 BA G2 AB | [Cc]2 AG [DF]3 D | [B,E]EEB [B,D]4 | %55
 [G,CE]E[A,DF]F [A,C]4 |[M:6/8] [dd']3 [ff']2 [Ff] | [GBg]6 | [ee']3 [cc']2 [Gg] | %59
 [Gg]2 [Aa-] [Aa]3 | [Bdb]3 [Gg]2 [Bb] | [Aa]3 [Ff]3 | [Cc]3 [Dd]3 | [Fdf]6 | z6 | z6 | z6 | z6 | %68
 B[B,D][B,D] [B,DG][B,D][B,DB] | A[A,E][A,E] [A,EF][A,E][A,E] | C3 D3 | F6 | %72
 B[B,D][B,D] [B,DG][B,D][B,DB] | A[A,E][A,E] [A,EF][A,E][A,E] |!<(! [CEGc]3 [DFAd]3!<)! | %75
 [dfbd']3 [fbd'f']2 [FBdf] | [GBdg]6 | [egc'e']3 c2 G | [Gceg]2 [A-cea] [Acea]3 | %79
 [Bdfb]3 [GBdg]2 [Gb] | [Aca]3 [FAf]3 | [EGc]3 [DFAd]3 | [FBdf]6 | [dfbd']3 [fbd'f']2 [FBdf] | %84
 [Bdg][Gg][Aa] [Bb][cc'][dd'] | [egc'e']3 [gc'e'g']2 [Gceg] | [Gceg]2 [Acea-] [Acea]- [Acea]2 | %87
 [Bdfb]3 [GBdg]2 [Bb] | [Aca]3 [FAf]3 | [EGc]3 [DFAd]3 | [FBdf]6 | [Bdfb]3 [GBdg]2 [Bb] | %92
!>(! [Aca]3 !fermata![FAf]3!>)! | [EGc]6 | [FAd]6 | !fermata![DFB]6 |] %96
V:3
 B,,[F,B,D][F,B,D] [F,B,D][F,B,D][F,B,D] | G,,[G,B,D][G,B,D] [G,B,D][G,B,D][G,B,D] | %2
 C,[G,CE][G,CE] [G,CE][G,CE][G,CE] | F,,[A,CE][A,CE] [A,CE][A,CE][A,CE] | B,,F,B, DB,F, | %5
 F,,F,A, CA,F, | C,G,E, F,,A,F, | B,,F,B, DB,F, | B,,F,B, DB,F, | B,,F,A, CA,F, | %10
!>(! [C,E,]3 [D,F,]3!>)! | z2 z4 |[M:4/4] [G,B,]4 [E,B,]4 | [E,G,]4 [B,,F,]4 | [B,,G,]4 [B,,F,]4 | %15
 [F,,F,]4 B,,F,B,D | [D,A,]4 [E,B,]4 | [E,G,]4 [B,,F,]4 | [B,,G,]4 [B,,F,]4 | [F,,F,]4 [B,,D,F,]4 | %20
 [G,B,]8 | [F,A,]4 [B,,B,]4 | [E,G,]4 [B,,F,]4 | C,2 D,2 [F,,F,]4 |[M:6/8] B,,F,B, D3 | [G,,D,]6 | %26
 C,G,C E3 | F,,6 | B,,F,B, DB,D | F,,F,A, CA,C | C,G,E, F,,A,F, | B,,F,B, DF,B, | B,,F,B, D3 | %33
 G,,6 | C,G,C E3 | [F,,C,]6 | B,,F,B, DB,F, | B,,E,A, CA,E, | C,G,E, F,,A,F, | B,,F,B, DCB, | %40
 B,,F,B, D3 | F,,F,A, C3 | C3 D3 | [B,,-F,]3 [B,,F,] z2 |[M:4/4] [G,,D,]4 E,4 | [E,G,]4 B,,4 | %46
 [B,,G,]4 [B,,F,]4 | [F,,F,]4 [B,,D,F,]4 | D,,4 E,,2 B,,2 | G,2 E,2 [B,,F,]4 | [B,,G,]4 [B,,F,]4 | %51
 [F,,F,]4 [B,,D,F,]4 | [G,B,]D,G,A, B,2 G,2 | [F,A,]4 [B,,B,]2 F,2 | [E,G,]4 [B,,F,]4 | %55
 C,2 D,2 [F,,F,]4 |[M:6/8] B,,B,F, D3 | G,,B,A, B,CD | C,CG, E3 | F,,CF, [EG][DF][CE] | %60
 B,,F,B, DB,F, | C,F,A, CA,F, | C,G,E, F,,A,F, | B,,F,B, DFB | B,,B,F, D3 | G,,D,G, B,G,B, | %66
 C,G,C E3 | F,,C,F, A,G,F, | B,,F,F, F,F,F, | B,,F,F, F,F,F, | C,E,G, F,,A,F, | B,,F,B, DB,F, | %72
 B,,F,F, F,F,F, | B,,F,F, F,F,F, | [C,,C,][C,,C,][C,,C,] [D,,D,][D,,D,][D,,D,] | %75
 B,,,[F,B,D][F,B,D] [F,B,D][F,B,D][F,B,D] | [G,,,G,,]D,G, B,CD | %77
 C,,[G,CE][G,CE] [G,CE][G,CE][G,CE] | F,,CF, EDE | B,,[B,DF][B,DF] [B,DF][B,DF][B,DF] | %80
 B,,[F,CE][A,CE] [A,CE][A,CE][A,CE] | C,CG, F,,A,F, | B,,[D,F,B,][D,F,B,] [F,B,D][F,B,D][B,DF] | %83
 [B,,,B,,]F,B, DB,D | [G,,D,]6 | C,G,C E3 | [F,,,F,,]3 [F,,,F,,][F,,,F,,][F,,,F,,] | %87
 [B,,,B,,][F,B,D][F,B,D] [F,B,D][F,B,D][F,B,D] | F,,[F,A,E][F,A,E] [F,A,E][F,A,E][F,A,E] | %89
 C,E,G, F,,A,F, | [B,,,B,,][D,F,B,][F,B,D] [B,DF]3 | %91
 [B,,,B,,][F,B,D][F,B,D] [F,B,D][F,B,D][F,B,D] | F,,[F,A,E][F,A,E] [F,A,E]3 | [C,G,]6 | [D,A,]6 | %95
 !fermata![B,,,B,,]6 |] %96

